T: Bay Tree, The
M: 3/4
L: 1/8
K: Gmaj
B3 B AB | d3 d BA | AG FG Ad | BA AA GA |B3 B AB | d3 d BA | AG FG AB |[1 D3 D GA :| [2 D4 D2 |||: B2 GD GB | c2 EG ce | d2 FA dg | e3 d- dc |B2 GD GB | c2 EG ce | d2 FA dg |[1 e2 dd- dc :|[2 e2 d2 |]
